material/.icons/material/toggle-switch-off-outline.svg

<svg xmlns="http://www.w3.org/2000/svg" viewBox="0 0 24 24"><path d="M7 10a2 2 0 012 2 2 2 0 01-2 2 2 2 0 01-2-2 2 2 0 012-2m10-3a5 5 0 015 5 5 5 0 01-5 5H7a5 5 0 01-5-5 5 5 0 015-5h10M7 9a3 3 0 00-3 3 3 3 0 003 3h10a3 3 0 003-3 3 3 0 00-3-3H7z"/></svg>

<?xml version="1.0" encoding="UTF-8"?><!DOCTYPE svg PUBLIC "-//W3C//DTD SVG 1.1//EN" "http://www.w3.org/Graphics/SVG/1.1/DTD/svg11.dtd"><svg xmlns="http://www.w3.org/2000/svg" xmlns:xlink="http://www.w3.org/1999/xlink" version="1.1" id="mdi-toggle-switch-off-outline" width="24" height="24" viewBox="0 0 24 24"><path d="M7,10A2,2 0 0,1 9,12A2,2 0 0,1 7,14A2,2 0 0,1 5,12A2,2 0 0,1 7,10M17,7A5,5 0 0,1 22,12A5,5 0 0,1 17,17H7A5,5 0 0,1 2,12A5,5 0 0,1 7,7H17M7,9A3,3 0 0,0 4,12A3,3 0 0,0 7,15H17A3,3 0 0,0 20,12A3,3 0 0,0 17,9H7Z" /></svg>
